art/standard/gamepad/ouya/lefttrigger.svg

<svg width="100px" height="100px" preserveAspectRatio="none" version="1.1" viewBox="0 0 100 100" xmlns="http://www.w3.org/2000/svg">
 <g id="OUYA">
  <g>
   <path d="m92.75 46.8c-0.2-10.1-3.4167-16.35-9.65-18.75-25.033-6.2333-46.367-8.3167-64-6.25-7.1667 1.6-11.1 7.7333-11.8 18.4-0.66667 10.633 1.5833 18.767 6.75 24.4 5.1667 5.6667 13.117 9.6 23.85 11.8 14.433 2.3333 28.967 3.05 43.6 2.15 2.9-1.2 5-3.4 6.3-6.6 2.0667-5 3.5167-10.483 4.35-16.45 0.26667-2.8 0.46667-5.7 0.6-8.7" fill="#1e1e1e"/>
   <path d="m79.85 43.4c0.13333-5.2-1.15-8.3667-3.85-9.5-19.533-5.3667-38.55-7.3667-57.05-6-3.7333 1.9-5.65 5-5.75 9.3-0.13333 4.3 0.71667 8.2333 2.55 11.8 1.8667 3.5333 4.2 6.5333 7 9 2.8 2.4 6.9333 4.2 12.4 5.4 5.5 1.1667 17.533 1.8833 36.1 2.15 3.0333-0.46667 4.8667-2.0667 5.5-4.8l1.4-6.35 1.7-11" fill="#3b3b3b"/>
   <path d="m66.5 40.8q0.5-0.5 1.35-0.4 0.7 0.05 1.2 0.5 0.45 0.5 0.4 1.2-0.05 0.65-0.55 1.05-0.45 0.45-0.9 0.85l-5.9 4.4-0.3 3.2 9.75 0.9 0.25-2.65-6.2-0.6 4.65-3.3q0.4-0.3 0.75-0.7 0.35-0.3 0.65-0.75 0.3-0.4 0.5-0.95t0.3-1.25q0.1-1.05-0.2-1.85-0.25-0.85-0.85-1.45-0.55-0.55-1.35-0.95-0.8-0.3-1.75-0.4-1-0.1-1.95 0.1-0.9 0.2-1.6 0.7-0.75 0.45-1.2 1.25-0.5 0.75-0.65 1.85l2.95 0.45q0.15-0.7 0.65-1.2m-12.4 7.1 1.05-11.25-3.1-0.25-1.35 14.15 8.8 0.8 0.3-2.9-5.7-0.55z" fill="#8C8C8C"/>
  </g>
  <path d="m83.1 28.05q9.35 3.6 9.65 18.75-0.2 4.5-0.6 8.7-1.25 8.95-4.35 16.45-1.95 4.8-6.3 6.6-21.95 1.35-43.6-2.15-16.1-3.3-23.85-11.8-7.75-8.45-6.75-24.4 1.05-16 11.8-18.4 26.45-3.1 64 6.25z" fill="none" stroke="#000" stroke-linecap="round" stroke-linejoin="round" stroke-width="5"/>
  <path d="m79.85 43.4q0.2-7.8-3.85-9.5-29.3-8.05-57.05-6-5.6 2.85-5.75 9.3-0.2 6.45 2.55 11.8 2.8 5.3 7 9 4.2 3.6 12.4 5.4 8.25 1.75 36.1 2.15 4.55-0.7 5.5-4.8l1.4-6.35 1.7-11z" fill="none" stroke="#4F4F4F" stroke-linecap="round" stroke-linejoin="round" stroke-width="4"/>
 </g>
</svg>

<svg xmlns="http://www.w3.org/2000/svg" version="1.1" xmlns:xlink="http://www.w3.org/1999/xlink" preserveAspectRatio="none" x="0px" y="0px" width="100px" height="100px" viewBox="0 0 100 100">
<defs/>

<g id="OUYA">
<g>
<g>
<g>
<path fill="#1E1E1E" stroke="none" d="
M 92.75 46.8
Q 92.45 31.65 83.1 28.05 45.55 18.7 19.1 21.8 8.35 24.2 7.3 40.2 6.3 56.15 14.05 64.6 21.8 73.1 37.9 76.4 59.55 79.9 81.5 78.55 85.85 76.75 87.8 71.95 90.9 64.45 92.15 55.5 92.55 51.3 92.75 46.8
M 76 33.9
Q 80.05 35.6 79.85 43.4
L 78.15 54.4 76.75 60.75
Q 75.8 64.85 71.25 65.55 43.4 65.15 35.15 63.4 26.95 61.6 22.75 58 18.55 54.3 15.75 49 13 43.65 13.2 37.2 13.35 30.75 18.95 27.9 46.7 25.85 76 33.9 Z"/>

<path fill="#3B3B3B" stroke="none" d="
M 79.85 43.4
Q 80.05 35.6 76 33.9 46.7 25.85 18.95 27.9 13.35 30.75 13.2 37.2 13 43.65 15.75 49 18.55 54.3 22.75 58 26.95 61.6 35.15 63.4 43.4 65.15 71.25 65.55 75.8 64.85 76.75 60.75
L 78.15 54.4 79.85 43.4
M 55.15 36.65
L 54.1 47.9 59.8 48.45 59.5 51.35 50.7 50.55 52.05 36.4 55.15 36.65
M 67.85 40.4
Q 67 40.3 66.5 40.8 66 41.3 65.85 42
L 62.9 41.55
Q 63.05 40.45 63.55 39.7 64 38.9 64.75 38.45 65.45 37.95 66.35 37.75 67.3 37.55 68.3 37.65 69.25 37.75 70.05 38.05 70.85 38.45 71.4 39 72 39.6 72.25 40.45 72.55 41.25 72.45 42.3 72.35 43 72.15 43.55 71.95 44.1 71.65 44.5 71.35 44.95 71 45.25 70.65 45.65 70.25 45.95
L 65.6 49.25 71.8 49.85 71.55 52.5 61.8 51.6 62.1 48.4 68 44
Q 68.45 43.6 68.9 43.15 69.4 42.75 69.45 42.1 69.5 41.4 69.05 40.9 68.55 40.45 67.85 40.4 Z"/>

<path fill="#8C8C8C" stroke="none" d="
M 66.5 40.8
Q 67 40.3 67.85 40.4 68.55 40.45 69.05 40.9 69.5 41.4 69.45 42.1 69.4 42.75 68.9 43.15 68.45 43.6 68 44
L 62.1 48.4 61.8 51.6 71.55 52.5 71.8 49.85 65.6 49.25 70.25 45.95
Q 70.65 45.65 71 45.25 71.35 44.95 71.65 44.5 71.95 44.1 72.15 43.55 72.35 43 72.45 42.3 72.55 41.25 72.25 40.45 72 39.6 71.4 39 70.85 38.45 70.05 38.05 69.25 37.75 68.3 37.65 67.3 37.55 66.35 37.75 65.45 37.95 64.75 38.45 64 38.9 63.55 39.7 63.05 40.45 62.9 41.55
L 65.85 42
Q 66 41.3 66.5 40.8
M 54.1 47.9
L 55.15 36.65 52.05 36.4 50.7 50.55 59.5 51.35 59.8 48.45 54.1 47.9 Z"/>
</g>
</g>

<g>
<path stroke="#000000" stroke-width="5" stroke-linejoin="round" stroke-linecap="round" fill="none" d="
M 83.1 28.05
Q 92.45 31.65 92.75 46.8 92.55 51.3 92.15 55.5 90.9 64.45 87.8 71.95 85.85 76.75 81.5 78.55 59.55 79.9 37.9 76.4 21.8 73.1 14.05 64.6 6.3 56.15 7.3 40.2 8.35 24.2 19.1 21.8 45.55 18.7 83.1 28.05 Z"/>
</g>

<g>
<path stroke="#4F4F4F" stroke-width="4" stroke-linejoin="round" stroke-linecap="round" fill="none" d="
M 79.85 43.4
Q 80.05 35.6 76 33.9 46.7 25.85 18.95 27.9 13.35 30.75 13.2 37.2 13 43.65 15.75 49 18.55 54.3 22.75 58 26.95 61.6 35.15 63.4 43.4 65.15 71.25 65.55 75.8 64.85 76.75 60.75
L 78.15 54.4 79.85 43.4 Z"/>
</g>
</g>
</g>
</svg>
